X:1
T:Title
%%score { 1 | 2 }
L:1/8
Q:1/4=78
M:6/8
K:G
V:1 treble nm="Grand Piano"
V:2 bass 
V:1
 [B,D][CE][B,D] [B,D][DB][B,DG] | [CDG]3 .F3 | AAA FED | [B,G]6 | [B,D][CE][B,D] [B,D][DB][B,DG] | %5
w: A.~J.~Abbey * * * * *|||||
 [CDG]3 .[CDF]3 | [G,DG][G,DF][G,CE] DAB | [B,G]6 | AAA BA[Fd] | [Gd]3 .[G^c]3 | eed ^cBc | [Fd]6 | %12
w: |||||||
 DED [B,D][DB][B,DG] | [CDG]3 .[CDF]3 | [G,DG][G,DF]E DAB | [B,G]6 | [FA][FA][FA] ABA | %17
w: |||||
 [FA]3 .[Fd]3 | eed ^cBc | [Fd]6 | DED [B,D][DB][B,DG] | [CDG]3 .[CDF]3 | %22
w: |||||
 [G,DG][G,DF]E DAB[Q:1/4=77][Q:1/4=76][Q:1/4=75][Q:1/4=73][Q:1/4=72][Q:1/4=71][Q:1/4=70][Q:1/4=69][Q:1/4=68][Q:1/4=67][Q:1/4=65][Q:1/4=64][Q:1/4=63][Q:1/4=62][Q:1/4=61][Q:1/4=60] | %23
w: |
 [B,G]6 | [FA][FA][FA] ABA | [FA]3 .[Fd]3 | eed ^cBc | [Fd]6 | %28
w: |||||
[Q:1/4=78] [B,D][CE][B,D] [B,D][DB][B,DG] | [CDG]3 .[CDF]3 | [G,DG][G,DF][G,CE] DAB | [B,G]6 | %32
w: ||||
 AAA BA[Fd] | [Gd]3 .[G^c]3 | eed ^cBc | [Fd]6 | DED [B,D][DB][B,DG] | [CDG]3 .[CDF]3 | %38
w: ||||||
 [G,DG][G,DF]E DAB[Q:1/4=77][Q:1/4=76][Q:1/4=75][Q:1/4=73][Q:1/4=72][Q:1/4=71][Q:1/4=70][Q:1/4=69][Q:1/4=68][Q:1/4=67][Q:1/4=65][Q:1/4=64][Q:1/4=63][Q:1/4=62][Q:1/4=61][Q:1/4=60] | %39
w: |
[M:7/4] [B,G]6 z2 z2 z4 |] %40
w: |
V:2
 [G,,G,][G,,G,][G,,G,] [G,,G,][G,,G,]G,, | A,,3 .[D,CD]3 | %2
 [D,F,C][D,F,C][D,F,C] [D,A,C][D,G,C][D,F,C] | [G,,G,]6 | [G,,G,][G,,G,][G,,G,] [G,,G,][G,,G,]G,, | %5
 A,,3 .D,3 | B,,B,,B,, [D,F,C][D,F,C][D,F,D] | [G,,G,]6 | %8
 [D,F,D][D,F,D][D,F,D] [D,G,D][D,F,D][D,A,] | [E,A,]3 .[E,A,]3 | %10
 [G,B,G][G,B,G][G,EG] [A,EG][A,DG][A,EG] | [D,D]6 | [D,F,C][D,F,C][D,F,C] [G,,G,][G,,G,]G,, | %13
 A,,3 .D,3 | B,,B,,[C,G,C] [D,F,C][D,F,C][D,F,D] | [G,,G,]6 | %16
 [D,D][D,D][D,D][K:treble] [A,^CG][A,CG][A,CG] | [D,D]3 .[D,A,]3 | %18
 [G,B,G][G,B,G][G,EG] [A,EG][A,DG][A,EG] | [D,D]6 | [D,F,C][D,F,C][D,F,C] [G,,G,][G,,G,]G,, | %21
 A,,3 .D,3 | B,,B,,[C,G,C] [D,F,C][D,F,C][D,F,D] | [G,,G,]6 | %24
 [D,D][D,D][D,D][K:treble] [A,^CG][A,CG][A,CG] | [D,D]3 .[D,A,]3 | %26
 [G,B,G][G,B,G][G,EG] [A,EG][A,DG][A,EG] | [D,D]6 | [G,,G,][G,,G,][G,,G,] [G,,G,][G,,G,]G,, | %29
 A,,3 .D,3 | B,,B,,B,, [D,F,C][D,F,C][D,F,D] | [G,,G,]6 | %32
 [D,F,D][D,F,D][D,F,D] [D,G,D][D,F,D][D,A,] | [E,A,]3 .[E,A,]3 | %34
 [G,B,G][G,B,G][G,EG] [A,EG][A,DG][A,EG] | [D,D]6 | [D,F,C][D,F,C][D,F,C] [G,,G,][G,,G,]G,, | %37
 A,,3 .D,3 | B,,B,,[C,G,C] [D,F,C][D,F,C][D,F,D] |[M:7/4] [G,,G,]6 z2 z2 z4 |] %40

